Adwaita++/actions/22/dialog-close.svg

<svg fill="none" height="22" viewBox="0 0 22 22" width="22" xmlns="http://www.w3.org/2000/svg">
  <circle cx="11" cy="11" fill="#e01b24" r="8"/>
  <path d="m6.50343 6.50026h1.12457c.01166-.00013.02338-.00051.03514 0 .28671.0126.57339.14465.77314.35156l2.56542 2.56628 2.6005-2.56628c.2987-.25931.5023-.34368.7732-.35156h1.1245v1.12498c0 .32227-.0386.61947-.2811.84373l-2.5654 2.56633 2.5303 2.5311c.2116.2117.3163.5102.3163.8086v1.125h-1.1246c-.2983 0-.5967-.1047-.8083-.3164l-2.5653-2.5663-2.5654 2.5663c-.2116.2117-.50995.3164-.80829.3164h-1.12457v-1.125c-.00001-.2984.10465-.5969.31628-.8086l2.56538-2.5311-2.56538-2.56633c-.23699-.21895-.34092-.52789-.31628-.84373v-1.12498z" fill="#deddda"/>
</svg>

<svg xmlns="http://www.w3.org/2000/svg" fill="none" width="22" height="22" viewBox="0 0 22 22">
 <circle fill="#E01B24" cx="11" cy="11" r="8"/>
 <path fill="#DEDDDA" d="M6.50343 6.50026H7.628C7.63966 6.50013 7.65138 6.49975 7.66314 6.50026C7.94985 6.51286 8.23653 6.64491 8.43628 6.85182L11.0017 9.4181L13.6022 6.85182C13.9009 6.59251 14.1045 6.50814 14.3754 6.50026H15.4999V7.62524C15.4999 7.94751 15.4613 8.24471 15.2188 8.46897L12.6534 11.0353L15.1837 13.5664C15.3953 13.7781 15.5 14.0766 15.5 14.375V15.5H14.3754C14.0771 15.5 13.7787 15.3953 13.5671 15.1836L11.0018 12.6173L8.4364 15.1836C8.2248 15.3953 7.92645 15.5 7.62811 15.5H6.50354V14.375C6.50353 14.0766 6.60819 13.7781 6.81982 13.5664L9.3852 11.0353L6.81982 8.46897C6.58283 8.25002 6.4789 7.94108 6.50354 7.62524V6.50026H6.50343Z"/>
</svg>
